!!!!SEGMENT: pl-sa--549-a-ix-29--005_anonim--walc.krn
!!!cenid: 18xx:461
!!!COM: Anonim
!!!COM-rismID: pe30004985
!!!CDT:
!!!CNT:
!!!OTL: Walc
!!!PDT:
!!!AGN: Secular; Waltz
!!!SMS-siglum: PL-SA
!!!SMS-shelfmark: 549/A IX 29
!!!SMS-shelfwork: 005 W
!!!SMS-variant:
!!!SMS-altvar:
!!!NIFC-rismSourceID: 1001068315
!!!NIFC-islandoraID:
!!!URL-pdf-islandora:
!!!URL-scan: https://bc.bdsandomierz.pl/dlibra/publication/1441/edition/1409/content @EN{Scan on Cyfrowa Biblioteka Diecezjalna w Sandomierzu} @PL{Skany w portalu Cyfrowa Biblioteka Diecezjalna w Sandomierzu}
!!!ONB-nifc: Str. 5 (s. 5) – str. 6 (s. 3)
!!!AIN: 1 piano
!!!key: E-
**kern	**kern	**dynam
*part1	*part1	*part1
*staff2	*staff1	*
*>[A,A,B,B,C,C,A,A,B,B,C,C,D,D,E,E,F]	*>[A,A,B,B,C,C,A,A,B,B,C,C,D,D,E,E,F]	*>[A,A,B,B,C,C,A,A,B,B,C,C,D,D,E,E,F]
*>A	*>A	*>A
*I"Piano	*	*
*Ipiano	*	*
*ICklav	*	*
*clefF4	*clefG2	*
*k[e-b-]	*k[b-e-]	*
*E-:	*E-:	*
*M3/8	*M3/8	*
8ryy	8b-\	.
=1	=1	=1
!LO:TX:t=[segno]:problem=znak segno na kresce taktowej	!LO:TX:t=[segno]:problem=znak segno na kresce taktowej	!
8E-\L	4bb-\	.
8g 8e- 8B-\	.	.
8gJ 8e- 8B-\	16gg\LL	.
.	16ee-\JJ	.
=2	=2	=2
*rep	*	*
8E-\L	16b-\LL	.
.	16dd\	.
8g 8e- 8B-\	16gg\	.
.	16ee-\	.
8gJ 8e- 8B-\	16ccc\	.
.	16bb-\JJ	.
*Xrep	*	*
=3	=3	=3
8BB-\L	4bb-\	.
8d 8B- 8F\	.	.
!	!LO:SIC:v:s=16aa-\LL	!
8dJ 8B- 8F\	16aa\LL	.
.	16ff\JJ	.
=4	=4	=4
*rep	*	*
8BB-\L	16dd\LL	.
.	16ff\	.
!	!LO:SIC:v:s=16aa-\	!
8d 8B- 8F\	16aa\	.
.	16ff\	.
8dJ 8B- 8F\	16ccc\	.
.	16bb-\JJ	.
*Xrep	*	*
=5	=5	=5
8E-\L	4bb-\	.
8g 8e- 8B-\	.	.
8gJ 8e- 8B-\	16gg\LL	.
.	16ee-\JJ	.
=6	=6	=6
*rep	*	*
8E-\L	16b-\LL	.
.	16ee-\	.
8g 8e- 8B-\	16gg\	.
.	16ee-\	.
8gJ 8e- 8B-\	16ccc\	.
.	16bb-\JJ	.
*Xrep	*	*
=7	=7	=7
!LO:TX:t=P:problem=mixed beam	!	!
8BB-/L	16b-\LL	.
.	16cc\	.
!LO:SIC:v:n=2:s=8A-	!	!
8dJ 8A 8F\	16dd\	.
.	16ee-\	.
8BB-/	16ff\	.
.	16gg\JJ	.
=8	=8	=8
!LO:TX:t=P:problem=mixed beam	!	!
8GL 8E-\	4ee-\	.
8EE-/J	.	.
=:|!|:	=:|!|:	=:|!|:
*>B	*>B	*>B
8r	8ff\	p
=9	=9	=9
!LO:TX:t=P:problem=mixed beam	!	!
8FF/L	16ff\LL	.
.	16fff\	.
8A 8F\	16ff\	.
.	16fff\	.
8dJ 8B- 8G\	16ff\	.
.	16fff\JJ	.
!!LO:LB:g=original
=10||	=10||	=10||
*k[e-b-a-]	*k[b-e-a-]	*
*^	*	*
*	*	*rep	*
8e-L 8c/	4F\	16ff\LL	.
.	.	16fff\	.
8d 8B-/	.	16ff\	.
.	.	16fff\	.
!	!LO:N:vis=4	!	!
!	!LO:SIC:v:s=8A\	!	!
8c/J	8A-\	16ff\	.
.	.	16fff\JJ	.
*	*	*Xrep	*
=11	=11	=11	=11
*	*	*tremolo	*
8ryy	8BB-\	16ff\LL	.
.	.	16fff\	.
!	!LO:N:vis=4	!	!
8dL 8B-/	8F\	16ff\	.
.	.	16fff\	.
!	!LO:N:vis=4	!	!
8e-/J	8c\	16ff\	.
.	.	16fff\JJ	.
=12	=12	=12	=12
*	*	*rep	*
8fL 8d/	4F\	16ff\LL	.
.	.	16fff\	.
8e- 8c/	.	16ff\	.
.	.	16fff\	.
8dJ 8B-/	8ryy	16ff\	.
.	.	16fff\JJ	.
*	*	*Xrep	*
*	*	*Xtremolo	*
*v	*v	*	*
=13	=13	=13
!	!	!LO:DY:t=for:rj
8E-\L	16gg\LL	f
.	16eee-\	.
8g 8e-\	16ff\	.
.	16eee-\	.
8gJ 8e-\	16aa-\	.
.	16bbb-\JJ	.
=14	=14	=14
*rep	*	*
8E-\L	16bb-\LL	.
.	16ggg\	.
8g 8e-\	16aa-\	.
.	16fff\	.
8gJ 8e-\	16gg\	.
.	16eee-\JJ	.
*Xrep	*	*
=15	=15	=15
8F\L	16ff\LL	.
.	16fff\	.
8f\	16ee-\	.
.	16eee-\	.
8F\J	16cc\	.
.	(16ccc\JJ	.
=16	=16	=16
!LO:TX:t=P:problem=mixed beam	!	!
8dL 8B-\	4bb- 4b-\)	.
8BB-/J	.	.
=17:|!|:	=17:|!|:	=17:|!|:
*>C	*>C	*>C
!LO:SIC:v:n=3:s=4A	!	!LO:DY:t=for
4f 4c 4A- 4F\	16ff\LL	f
.	16fff\	.
.	16een\	.
.	16eeeny\	.
8r	16ee-X\	.
.	16eee-y\JJ	.
!!LO:PB:g=original
=18	=18	=18
*	*k[e-b-a-]	*
!LO:SIC:v:n=3:s=4A	!	!
4f 4c 4A- 4F\	(16dd\LL	.
.	16ddd\	.
.	16ee-\	.
.	16eee-\	.
8r	16cc\	.
!	!LO:TX:b:i:t=Da Capo	!
.	16ccc\JJ)	.
=19:|!|:	=19:|!|:	=19:|!|:
*>D	*>D	*>D
!LO:N:vis=8	!	!
4r	8g/	.
*	*Xtuplet	*
.	24f/LL	.
.	24e-/	.
.	24d/JJ	.
=20	=20	=20
8BB-\L	16d\LL	.
.	16b-\	.
8F 8D\	16f\	.
.	16dd\	.
8FJ 8D\	16b-\	.
.	16ff\JJ	.
=21	=21	=21
!LO:TX:t=P:problem=mixed beam	!	!
8FF/L	16dd\LL	.
.	16bb-\	.
8F 8D\	16ff\	.
.	16ddd\	.
8FJ 8D\	16ccc\	.
.	16bb-\JJ	.
=22	=22	=22
!	!LO:SIC:v:s=16aa\LL	!
8C\L	16aa-\LL	.
.	16ccc\	.
!	!LO:SIC:v:s=16aa\	!
8F 8E-\	16aa-\	.
.	16eee-\	.
8FJ 8E-\	16gg\	.
.	16ggg\JJ	.
=23	=23	=23
!LO:TX:t=P:problem=mixed beam	!	!
8FF/L	4ggg\	.
8F 8E-\	.	.
8FJ 8E-\	16fff\LL	.
.	16ggg\JJ	.
=24	=24	=24
8BB-\L	16dd\LL	.
.	16gg\	.
8F 8D\	16ff\	.
.	16eee-\	.
8FJ 8D\	16ccc\	.
.	16bb-\JJ	.
=25	=25	=25
!	!LO:SIC:v:s=16aa\LL	!
8E-\L	16aa-\LL	.
.	16gg\	.
8c 8G\	16ff#X\	.
.	16gg\	.
8cJ 8G\	16ee-\	.
.	16cc\JJ	.
!!LO:LB:g=original
=26	=26	=26
.	8qccc/	.
8F\L	16bb-\LL	.
!	!LO:SIC:v:s=16aa\	!
.	16aa-\	.
8e- 8c\	16eee-\	.
.	16fff\	.
8F\J	16fff\	.
!	!LO:SIC:v:s=16aa\JJ	!
.	16aa-\JJ	.
=27	=27	=27
4d 4B-\	4bb-\	.
=:|!|:	=:|!|:	=:|!|:
*>E	*>E	*>E
8r	8cc\	.
=28	=28	=28
!	!	!LO:DY:t=pia
8F\L	4aa-\	p
8c 8B- 8G\	.	.
8cJ 8B- 8G\	16gg\LL	.
.	16ff\JJ	.
=29	=29	=29
8C\L	4bb-\	.
8c 8A-\	.	.
8cJ 8A-\	8ccc 8aa-\	.
=30	=30	=30
8E-\L	4gg\	.
8c 8A-\	.	.
8cJ 8B-\	16ff\LL	.
.	16een\JJ	.
=31	=31	=31
8C\L	4bb-\	.
8c 8A-\	.	.
8cJ 8B-\	8ccc\	.
=32	=32	=32
8F\L	4aa-\	.
8c 8A-\	.	.
8cJ 8A-\	16gg\LL	.
.	16ff\JJ	.
=33	=33	=33
.	8qff/	.
8BB-\L	16ee-\LL	.
!	!LO:SIC:v:s=16dd-\JJ	!
.	16dd\JJ	.
!	!LO:SIC:v:s=8qdd-/	!
.	8qdd/	.
!LO:SIC:v:n=1:s=8d-	!	!
8d 8B-\	16cc\LL	.
.	16b-\JJ	.
.	8qb-/	.
!LO:SIC:v:n=1:s=8d-J	!	!
8dJ 8B-\	16a-\LL	.
.	16g\JJ	.
=34	=34	=34
8C\L	16f/LL	.
.	16en/JJ	.
8c 8A-\	16b-/LL	.
!	!LO:SIC:v:s=16dd-/	!
.	16dd/	.
8C\J	16cc/	.
.	16en/JJ	.
=35	=35	=35
!LO:TX:t=P:problem=mixed beam	!	!
8A-L 8F\	4f/	.
8AA-/J	.	.
!!LO:LB:g=original
=36:|!|:	=36:|!|:	=36:|!|:
*>F	*>F	*>F
8BB-\L	16an\LL	.
.	16b-\	.
8Any 8F\	16cc\	.
.	16b-\	.
16dL 16B- 16G\	16dd 16a-X\	.
16BB-\JJ	16b-\JJ	.
=37	=37	=37
!LO:TX:t=P:problem=mixed beam	!	!
8E-\L	4ee- 4g\	.
8EE-/J	.	.
8r	8ryy	.
==	==	==
*-	*-	*-
!!!system-decoration: {(s1,s2)}
!!!ENC: Andrzej Gręziak
!!!END: 2022-01-28
!!!ENC: Andrzej Kubiczek
!!!END: 2022-01-29
